docs/_site/assets/images/src/Social/VK.svg

<svg width="20" height="20" viewBox="0 0 20 20" fill="none" xmlns="http://www.w3.org/2000/svg">
	<g clip-path="url(#clip0)">
	<path d="M19.8216 14.4726C19.7678 14.3825 19.4353 13.66 17.8352 12.1749C16.1601 10.6198 16.3851 10.8723 18.4027 8.18333C19.6316 6.54571 20.1229 5.54564 19.9691 5.11811C19.8228 4.71058 18.919 4.81808 18.919 4.81808L15.9138 4.83559C15.9138 4.83559 15.6913 4.80558 15.525 4.90434C15.3638 5.00185 15.26 5.22686 15.26 5.22686C15.26 5.22686 14.7837 6.49446 14.1487 7.57204C12.8098 9.84596 12.2735 9.96597 12.0548 9.82471C11.546 9.49593 11.6735 8.50211 11.6735 7.79706C11.6735 5.59314 12.0073 4.67432 11.0222 4.43681C10.6947 4.35805 10.4547 4.30555 9.61835 4.2968C8.54577 4.28554 7.63696 4.30055 7.12317 4.55181C6.78065 4.71933 6.51688 5.09311 6.67814 5.11436C6.8769 5.14061 7.32694 5.23562 7.5657 5.56064C7.87448 5.97942 7.86322 6.92199 7.86322 6.92199C7.86322 6.92199 8.04074 9.51593 7.44944 9.83846C7.04317 10.0597 6.48687 9.60844 5.29304 7.54454C4.68174 6.48821 4.21921 5.31937 4.21921 5.31937C4.21921 5.31937 4.13046 5.10186 3.97169 4.9856C3.77918 4.84434 3.50916 4.79933 3.50916 4.79933L0.651454 4.81683C0.651454 4.81683 0.222673 4.82934 0.0651617 5.0156C-0.0748484 5.18186 0.0539109 5.52439 0.0539109 5.52439C0.0539109 5.52439 2.29157 10.7585 4.82426 13.3975C7.14817 15.8164 9.78586 15.6576 9.78586 15.6576H10.981C10.981 15.6576 11.3422 15.6176 11.526 15.4189C11.696 15.2364 11.6898 14.8938 11.6898 14.8938C11.6898 14.8938 11.666 13.29 12.4111 13.0537C13.1449 12.8212 14.0874 14.6038 15.0862 15.2901C15.8413 15.8089 16.4151 15.6951 16.4151 15.6951L19.0865 15.6576C19.0865 15.6576 20.4841 15.5714 19.8216 14.4726Z"/>
	</g>
	<defs>
	<clipPath id="clip0">
	<rect width="20" height="20"/>
	</clipPath>
	</defs>
</svg>

<svg width="20" height="20" fill="none" xmlns="http://www.w3.org/2000/svg"><g clip-path="url(#clip0)"><path d="M19.822 14.473c-.054-.09-.387-.813-1.987-2.298-1.675-1.555-1.45-1.303.568-3.992 1.229-1.637 1.72-2.637 1.566-3.065-.146-.407-1.05-.3-1.05-.3l-3.005.018s-.223-.03-.389.068c-.161.098-.265.323-.265.323s-.476 1.267-1.111 2.345c-1.34 2.274-1.875 2.394-2.094 2.253-.509-.33-.381-1.323-.381-2.028 0-2.204.333-3.123-.652-3.36-.327-.079-.567-.131-1.404-.14-1.072-.011-1.981.004-2.495.255-.342.167-.606.541-.445.562.199.027.649.122.888.447.308.418.297 1.361.297 1.361s.178 2.594-.414 2.916c-.406.222-.962-.23-2.156-2.293-.611-1.057-1.074-2.226-1.074-2.226s-.089-.217-.247-.333a1.246 1.246 0 00-.463-.187l-2.858.018s-.428.012-.586.199c-.14.166-.011.508-.011.508s2.238 5.234 4.77 7.874c2.324 2.418 4.962 2.26 4.962 2.26h1.195s.361-.04.545-.24c.17-.182.164-.524.164-.524s-.024-1.604.721-1.84c.734-.233 1.676 1.55 2.675 2.236.755.519 1.33.405 1.33.405l2.67-.037s1.398-.087.736-1.185z"/></g><defs><clipPath id="clip0"><path d="M0 0h20v20H0z"/></clipPath></defs></svg>
